X:1
T:Title
%%score 1 { 2 | 3 }
L:1/8
Q:1/4=108
M:4/4
K:F
V:1 treble nm="Grand Piano, Soprano"
V:2 bass nm="Choir Pad, Braintree, 87.87 D"
V:3 bass 
V:1
 C[CF] [FA]2 [FA]2 [F_A]2 | [FA]2 [FB]4 [FA]2 | [CF][FA] [EG]2 [_E^F]2 [=EG]2 | [EA]2 [CF]6 | %4
w: By~William~James~Kirkpatrick,~1891 * * * *||||
 C[CF] [FA]2 [FA]2 [F_A]2 | [FA]2 [Fc]4 [FB]2 | [FA][FA] [EG]2 [EG]2 [FA]2 | [FG]2 [EG]6 | %8
w: ||||
 CC [EB]2 [EB]2 [Ec]2 | [EB]2 [GB]4 [FA]2 | [FA][FA] [EG]2 [EG]2 [Ec]2 | [EB]2 [FA]6 | %12
w: ||||
 [CF][CF] F2 [FB]2 [FB]2 | [Fd]2 [Fd]2 [Fc]4 | [CF][FA] [FA]2 [CG]2 [CF]2 | [CE]2 [CF]6- | %16
w: ||||
 [CF]2 z2 z4 |] %17
w: |
V:2
 A,A, C2 C2 =B,2 | C2 D4 C2 | A,C[K:bass] B,2 A,2 B,2 | C2 A,6 | A,A,[K:treble] C2 C2 =B,2 | %5
 C2 _E4 D2 | CC C2 C2[K:bass] =B,2 | =B,2 C6 | E,E, G,2 G,2 G,2 | C2 C4 C2 | CC C2 C2 G,2 | C2 C6 | %12
 A,A, B,2 B,2 D2 | B,2 B,2 A,4 | A,C C2 B,2 A,2 | G,2 A,6- | A,2 z2 z4 |] %17
V:3
 F,F, F,2 F,2 F,2 | F,2 F,4 F,2 | F,F, C,2 C,2 C,2 | C,2 F,6 | F,F, F,2 F,2 F,2 | F,2 F,4 F,2 | %6
 F,F, G,2 G,2 G,2 | G,2 C,6 | C,C, C,2 C,2 C,2 | C,2 F,4 F,2 | F,F, C,2 C,2 C,2 | C,2 F,6 | %12
 F,F, D,2 D,2 B,,2 | B,,2 F,2 F,4 | F,F, C,2 C,2 C,2 | C,2 F,6- | F,2 z2 z4 |] %17

